assets/images/icons/src/pause.svg

<?xml version="1.0" encoding="utf-8"?>
<!-- Generated by IcoMoon.io -->
<!DOCTYPE svg PUBLIC "-//W3C//DTD SVG 1.1//EN" "http://www.w3.org/Graphics/SVG/1.1/DTD/svg11.dtd">
<svg version="1.1" xmlns="http://www.w3.org/2000/svg" xmlns:xlink="http://www.w3.org/1999/xlink" width="12" height="14" viewBox="0 0 12 14">
<path fill="#444444" d="M12 1.5v11q0 0.203-0.148 0.352t-0.352 0.148h-4q-0.203 0-0.352-0.148t-0.148-0.352v-11q0-0.203 0.148-0.352t0.352-0.148h4q0.203 0 0.352 0.148t0.148 0.352zM5 1.5v11q0 0.203-0.148 0.352t-0.352 0.148h-4q-0.203 0-0.352-0.148t-0.148-0.352v-11q0-0.203 0.148-0.352t0.352-0.148h4q0.203 0 0.352 0.148t0.148 0.352z"></path>
</svg>

<svg xmlns="http://www.w3.org/2000/svg" width="12" height="14" viewBox="0 0 12 14"><path fill="#444" d="M12 1.5v11q0 .203-.148.352T11.5 13h-4q-.203 0-.352-.148T7 12.5v-11q0-.203.148-.352T7.5 1h4q.203 0 .352.148T12 1.5zm-7 0v11q0 .203-.148.352T4.5 13h-4q-.203 0-.352-.148T0 12.5v-11q0-.203.148-.352T.5 1h4q.203 0 .352.148T5 1.5z"/></svg>
